src/next/cmd/sc_printersetup.svg

<svg enable-background="new" height="16" width="16" xmlns="http://www.w3.org/2000/svg" xmlns:xlink="http://www.w3.org/1999/xlink"><linearGradient id="a" gradientUnits="userSpaceOnUse" x1="102.30765" x2="106.01008" y1="39.141762" y2="209.45338"><stop offset="0" stop-color="#99999c"/><stop offset=".5" stop-color="#9c9ca1"/><stop offset="1" stop-color="#cdcdd1"/></linearGradient><linearGradient id="b" gradientUnits="userSpaceOnUse" x1="78.610847" x2="120.3435" y1="88.852417" y2="111.54715"><stop offset="0" stop-color="#fff"/><stop offset="1" stop-color="#ccc"/></linearGradient><linearGradient id="c" gradientUnits="userSpaceOnUse" x1="88.38102" x2="130.48599" y1="1008.9966" y2="1015.6953"><stop offset="0" stop-color="#7b7b7b"/><stop offset="1" stop-color="#797979" stop-opacity="0"/></linearGradient><clipPath id="d"><path d="m41.355614 933.74432h83.943996v117.52168h-83.943996z"/></clipPath><filter id="e" color-interpolation-filters="sRGB" height="1.073732" width="1.13754" x="-.06877" y="-.036866"><feGaussianBlur stdDeviation="1.0557314"/></filter><linearGradient id="f" gradientUnits="userSpaceOnUse" x1="98.40847" x2="115.25523" y1="30.758501" y2="77.140503"><stop offset="0" stop-color="#fff" stop-opacity=".683453"/><stop offset="1" stop-color="#fff" stop-opacity="0"/></linearGradient><linearGradient id="g" gradientTransform="matrix(.58291629 0 0 .66676377 62.177025 -566.68964)" gradientUnits="userSpaceOnUse" x1="63.011921" x2="63.011921" y1="945.89801" y2="1033.1569"><stop offset="0" stop-color="#545454" stop-opacity=".988"/><stop offset="1" stop-color="#ebebeb"/></linearGradient><linearGradient id="h" gradientTransform="matrix(.48045402 0 0 .66178602 128.73476 -578.51587)" gradientUnits="userSpaceOnUse" x1="-60.535713" x2="-60.357143" y1="979.50507" y2="1009.505"><stop offset="0" stop-color="#979797"/><stop offset=".148461" stop-color="#f6f6f6"/><stop offset=".28399727" stop-color="#e2e2e2"/><stop offset=".41198727" stop-color="#dedede"/><stop offset=".41198727" stop-color="#f6f6f6"/><stop offset="1" stop-color="#6b6b6b"/></linearGradient><linearGradient id="i" gradientTransform="matrix(.480454 0 0 .58309338 128.76683 499.76645)" gradientUnits="userSpaceOnUse" x1="-61.078979" x2="-60.6413" y1="-1056.658" y2="-1010.9131"><stop offset="0" stop-color="#777"/><stop offset=".18176934" stop-color="#a8a8a8"/><stop offset=".22864534" stop-color="#cdcdcd"/><stop offset=".34561315" stop-color="#f7f7f7"/><stop offset="1" stop-color="#fff"/></linearGradient><linearGradient id="j" gradientUnits="userSpaceOnUse" x1="64.255119" x2="64.255119" y1="47.693993" y2="67.693993"><stop offset="0" stop-color="#baaac4"/><stop offset="1" stop-color="#baaac4" stop-opacity="0"/></linearGradient><linearGradient id="k" gradientTransform="matrix(1.0312643 0 0 .6746442 -2.000017 21.891662)" gradientUnits="userSpaceOnUse" x1="52" x2="76" y1="72" y2="72"><stop offset="0"/><stop offset=".66666669" stop-color="#a6a6a6" stop-opacity=".866667"/><stop offset="1" stop-opacity=".737089"/></linearGradient><linearGradient id="l" gradientUnits="userSpaceOnUse" x1="68.000877" x2="67.436554" y1="123.69399" y2="97.321114"><stop offset="0" stop-color="#fefefe"/><stop offset=".5" stop-color="#f7f7f7"/><stop offset=".91002578" stop-color="#8c8c8c"/><stop offset="1" stop-color="#666"/></linearGradient><linearGradient id="m" gradientTransform="matrix(.90905844 0 0 1 6.010185 3.69403)" gradientUnits="userSpaceOnUse" x1="64" x2="64" y1="48" y2="72"><stop offset="0" stop-color="#6e4388"/><stop offset=".21062189" stop-color="#651d8d"/><stop offset=".346082" stop-color="#ac7ec6"/><stop offset=".51274866" stop-color="#ca87dc"/><stop offset="1" stop-color="#ebeaeb"/></linearGradient><linearGradient id="n" gradientTransform="matrix(.85938698 0 0 1.1353881 8.99998 -2.607879)" gradientUnits="userSpaceOnUse" x1="68" x2="68" y1="4" y2="48"><stop offset="0" stop-color="#fff"/><stop offset=".54545456" stop-color="#ebebeb"/><stop offset=".90909094" stop-color="#bababa"/><stop offset="1" stop-color="#7e7e7f"/></linearGradient><linearGradient id="o" gradientTransform="matrix(1.0731876 0 0 1.0898743 -4.878275 -.979469)" gradientUnits="userSpaceOnUse" x1="64" x2="64" y1="88" y2="56"><stop offset="0" stop-color="#7f7f81"/><stop offset=".44999999" stop-color="#b6b6b7"/><stop offset=".67499995" stop-color="#f5f5f5"/><stop offset="1" stop-color="#cfcfcf"/></linearGradient><linearGradient id="p" gradientTransform="matrix(1.1000154 0 0 1.259077 -6.400024 -21.931205)" gradientUnits="userSpaceOnUse" x1="64" x2="63.9991" y1="96" y2="52.364712"><stop offset="0" stop-color="#080808"/><stop offset="1" stop-color="#232323"/></linearGradient><g transform="matrix(.125 0 0 .125 .000003 -.000004)"><rect fill="#111012" height="34.240574" rx=".20271" ry=".351644" width="80" x="23.999975" y="16.000055"/><rect fill="#3e3c41" height="27.379881" rx=".168174" ry=".279602" width="64.000008" x="31.999973" y="23.999949"/><rect fill="#636363" fill-opacity=".996078" height="56.058727" rx=".198656" ry=".315411" width="48" x="39.999977" y=".00004"/><rect fill="#1d1d1d" height="23.2724" rx="8" transform="scale(1 -1)" width="113.77512" x="5.818977" y="-67.694855"/><rect fill="url(#p)" height="58.603493" rx=".2445" ry=".383627" width="127.99999" x="-.000024" y="44.000023"/><rect fill="#b6b6b6" height="19.999987" rx="7.687527" ry="3.693984" transform="scale(1 -1)" width="119.99999" x="3.999976" y="-63.999985"/><rect fill="url(#o)" height="40.000019" rx=".221498" ry=".271696" width="119.99999" x="3.999976" y="55.999977"/><rect fill="#28232c" height="19.577457" rx=".23216" ry=".352081" width="103.99999" x="11.999976" y="44.42252"/><rect fill="url(#n)" height="46.240612" rx=".177371" ry=".283042" width="39.999996" x="43.999977" y="3.999986"/><path d="m20.378978 44.530014h87.621902c.10394 0 .18762.155338.18762.347716v16.468233c0 .192756-.12556.264567-.18762.347717l-7.44861 9.999987.36375 6h-73.452198l.363764-6-7.44861-9.999987c-.06776-.09109-.187623-.154961-.187623-.347717v-16.468233c0-.192756.08368-.347716.187625-.347716z" style="stroke:#1f1f1f;stroke-width:3;stroke-linecap:square;stroke-linejoin:round;stroke-opacity:.924883;fill:url(#m)"/><path d="m23.999976 95.999998v32.000012h80.000004v-32.000012z" fill="#222" fill-rule="evenodd"/><path d="m27.999975 95.999998v27.999992h71.999997l.000004-27.999992z" fill="url(#l)" fill-rule="evenodd"/><rect height="20.000017" rx=".206393" ry=".266329" width="79.999985" x="23.999975" y="76.000053"/><rect fill="url(#k)" height="8.000092" rx=".212846" ry=".168183" width="23.999996" x="51.999977" y="68.000046"/><rect fill="#986aae" height="15.999999" rx=".281181" ry=".640314" width="56.000004" x="35.999977" y="44.000023"/><rect fill="url(#j)" height="27.999975" opacity=".92" rx=".30959" ry="1.007805" width="48" x="39.999977" y="44.000023"/><rect fill="#c9b1d5" height="11.999978" rx=".257991" ry=".525472" width="48" x="39.999977" y="44.000023"/><rect fill="#0c0c0c" height="7.999975" rx=".257991" ry=".266553" width="40" x="43.999977" y="44.000023"/><path d="m28.000878 87.693995-.000903-7.693984h71.999997l.000908 7.693984z" fill="#545156" fill-rule="evenodd"/></g><g transform="matrix(.1350465625 0 0 .1350465625 -1.316296625 -1.285964375)"><path d="m68.985809 46.546616h59.012391v81.453444h-59.012391z" fill="url(#a)"/><path d="m76.390663 53.951469h44.429127v66.643681h-44.429127z" fill="url(#b)"/><path clip-path="url(#d)" d="m92.81509 1029.6319c1.071428 1.4286 10.71429 15.3572 11.78571 13.5715 1.07143-1.7858 26.42857-25.3572 25-26.7858-1.42857-1.4285-33.928567-41.78567-33.928567-41.78567z" fill="url(#c)" fill-rule="evenodd" filter="url(#e)" opacity=".68" transform="matrix(.69309305 0 0 .69309305 41.153912 -600.6251)"/><path d="m72 48v48c14.790777-17.220934 34.04067-23.231931 48-25.4375v-22.5625z" fill="url(#f)" fill-rule="evenodd" transform="matrix(.92560668 0 0 .92560668 9.746984 9.522348)"/><path d="m83.795517 65.058746h29.619413v48.131544h-29.619413z" fill="url(#g)"/><path d="m87.497948 68.761177h22.214562v40.726693h-22.214562z" fill="#535353"/><path d="m91.200371 72.4636h14.809709v14.809709h-14.809709z" fill="url(#h)"/><path d="m91.200371-116.89272h14.809719v29.619408h-14.809719z" fill="url(#i)" transform="scale(1 -1)"/></g></svg>

<?xml version="1.0" encoding="UTF-8" standalone="no"?>
<svg
   xmlns:dc="http://purl.org/dc/elements/1.1/"
   xmlns:cc="http://creativecommons.org/ns#"
   xmlns:rdf="http://www.w3.org/1999/02/22-rdf-syntax-ns#"
   xmlns:svg="http://www.w3.org/2000/svg"
   xmlns="http://www.w3.org/2000/svg"
   xmlns:sodipodi="http://sodipodi.sourceforge.net/DTD/sodipodi-0.dtd"
   xmlns:inkscape="http://www.inkscape.org/namespaces/inkscape"
   height="16"
   width="16"
   version="1.1"
   id="svg172"
   sodipodi:docname="sc_printersetup.svg"
   style="enable-background:new"
   inkscape:version="0.92.4 (unknown)"
   inkscape:export-filename="/home/rizmut/Dokumen/Rizmut/Github/libreoffice-style-karasa-jaga/build/next/cmd/sc_printersetup.png"
   inkscape:export-xdpi="96"
   inkscape:export-ydpi="96">
  <metadata
     id="metadata178">
    <rdf:RDF>
      <cc:Work
         rdf:about="">
        <dc:format>image/svg+xml</dc:format>
        <dc:type
           rdf:resource="http://purl.org/dc/dcmitype/StillImage" />
        <dc:title></dc:title>
      </cc:Work>
    </rdf:RDF>
  </metadata>
  <defs
     id="defs176" />
  <sodipodi:namedview
     pagecolor="#ffffff"
     bordercolor="#666666"
     borderopacity="1"
     objecttolerance="10"
     gridtolerance="10"
     guidetolerance="10"
     inkscape:pageopacity="0"
     inkscape:pageshadow="2"
     inkscape:window-width="1366"
     inkscape:window-height="714"
     id="namedview174"
     showgrid="true"
     inkscape:zoom="3.7849541"
     inkscape:cx="15.5942"
     inkscape:cy="4.949901"
     inkscape:window-x="0"
     inkscape:window-y="28"
     inkscape:window-maximized="1"
     inkscape:current-layer="g1034">
    <inkscape:grid
       type="xygrid"
       id="grid985" />
  </sodipodi:namedview>
  <linearGradient
     id="a"
     gradientUnits="userSpaceOnUse"
     x1="102.30765"
     x2="106.01008"
     y1="39.141762"
     y2="209.45338">
    <stop
       offset="0"
       stop-color="#99999c"
       id="stop2" />
    <stop
       offset=".5"
       stop-color="#9c9ca1"
       id="stop4" />
    <stop
       offset="1"
       stop-color="#cdcdd1"
       id="stop6" />
  </linearGradient>
  <linearGradient
     id="b"
     gradientUnits="userSpaceOnUse"
     x1="78.610847"
     x2="120.3435"
     y1="88.852417"
     y2="111.54715">
    <stop
       offset="0"
       stop-color="#fff"
       id="stop9" />
    <stop
       offset="1"
       stop-color="#ccc"
       id="stop11" />
  </linearGradient>
  <linearGradient
     id="c"
     gradientUnits="userSpaceOnUse"
     x1="88.38102"
     x2="130.48599"
     y1="1008.9966"
     y2="1015.6953">
    <stop
       offset="0"
       stop-color="#7b7b7b"
       id="stop14" />
    <stop
       offset="1"
       stop-color="#797979"
       stop-opacity="0"
       id="stop16" />
  </linearGradient>
  <clipPath
     id="d">
    <path
       d="M 41.355614,933.74432 H 125.29961 V 1051.266 H 41.355614 Z"
       id="path19"
       inkscape:connector-curvature="0" />
  </clipPath>
  <filter
     id="e"
     height="1.073732"
     width="1.13754"
     x="-0.068769999"
     y="-0.036866002"
     style="color-interpolation-filters:sRGB">
    <feGaussianBlur
       stdDeviation="1.0557314"
       id="feGaussianBlur22" />
  </filter>
  <linearGradient
     id="f"
     gradientUnits="userSpaceOnUse"
     x1="98.40847"
     x2="115.25523"
     y1="30.758501"
     y2="77.140503">
    <stop
       offset="0"
       stop-color="#fff"
       stop-opacity=".683453"
       id="stop25" />
    <stop
       offset="1"
       stop-color="#fff"
       stop-opacity="0"
       id="stop27" />
  </linearGradient>
  <linearGradient
     id="g"
     gradientTransform="matrix(0.58291629,0,0,0.66676377,62.177025,-566.68964)"
     gradientUnits="userSpaceOnUse"
     x1="63.011921"
     x2="63.011921"
     y1="945.89801"
     y2="1033.1569">
    <stop
       offset="0"
       stop-color="#545454"
       stop-opacity=".988"
       id="stop30" />
    <stop
       offset="1"
       stop-color="#ebebeb"
       id="stop32" />
  </linearGradient>
  <linearGradient
     id="h"
     gradientTransform="matrix(0.48045402,0,0,0.66178602,128.73476,-578.51587)"
     gradientUnits="userSpaceOnUse"
     x1="-60.535713"
     x2="-60.357143"
     y1="979.50507"
     y2="1009.505">
    <stop
       offset="0"
       stop-color="#979797"
       id="stop35" />
    <stop
       offset=".148461"
       stop-color="#f6f6f6"
       id="stop37" />
    <stop
       offset=".28399727"
       stop-color="#e2e2e2"
       id="stop39" />
    <stop
       offset=".41198727"
       stop-color="#dedede"
       id="stop41" />
    <stop
       offset=".41198727"
       stop-color="#f6f6f6"
       id="stop43" />
    <stop
       offset="1"
       stop-color="#6b6b6b"
       id="stop45" />
  </linearGradient>
  <linearGradient
     id="i"
     gradientTransform="matrix(0.480454,0,0,0.58309338,128.76683,499.76645)"
     gradientUnits="userSpaceOnUse"
     x1="-61.078979"
     x2="-60.6413"
     y1="-1056.658"
     y2="-1010.9131">
    <stop
       offset="0"
       stop-color="#777"
       id="stop48" />
    <stop
       offset=".18176934"
       stop-color="#a8a8a8"
       id="stop50" />
    <stop
       offset=".22864534"
       stop-color="#cdcdcd"
       id="stop52" />
    <stop
       offset=".34561315"
       stop-color="#f7f7f7"
       id="stop54" />
    <stop
       offset="1"
       stop-color="#fff"
       id="stop56" />
  </linearGradient>
  <linearGradient
     id="j"
     gradientUnits="userSpaceOnUse"
     x1="64.255119"
     x2="64.255119"
     y1="47.693993"
     y2="67.693993">
    <stop
       offset="0"
       stop-color="#baaac4"
       id="stop59" />
    <stop
       offset="1"
       stop-color="#baaac4"
       stop-opacity="0"
       id="stop61" />
  </linearGradient>
  <linearGradient
     id="k"
     gradientTransform="matrix(1.0312643,0,0,0.6746442,-2.000017,21.891662)"
     gradientUnits="userSpaceOnUse"
     x1="52"
     x2="76"
     y1="72"
     y2="72">
    <stop
       offset="0"
       id="stop64" />
    <stop
       offset=".66666669"
       stop-color="#a6a6a6"
       stop-opacity=".866667"
       id="stop66" />
    <stop
       offset="1"
       stop-opacity=".737089"
       id="stop68" />
  </linearGradient>
  <linearGradient
     id="l"
     gradientUnits="userSpaceOnUse"
     x1="68.000877"
     x2="67.436554"
     y1="123.69399"
     y2="97.321114">
    <stop
       offset="0"
       stop-color="#fefefe"
       id="stop71" />
    <stop
       offset=".5"
       stop-color="#f7f7f7"
       id="stop73" />
    <stop
       offset=".91002578"
       stop-color="#8c8c8c"
       id="stop75" />
    <stop
       offset="1"
       stop-color="#666"
       id="stop77" />
  </linearGradient>
  <linearGradient
     id="m"
     gradientTransform="matrix(0.90905844,0,0,1,6.010185,3.69403)"
     gradientUnits="userSpaceOnUse"
     x1="64"
     x2="64"
     y1="48"
     y2="72">
    <stop
       offset="0"
       stop-color="#6e4388"
       id="stop80" />
    <stop
       offset=".21062189"
       stop-color="#651d8d"
       id="stop82" />
    <stop
       offset=".346082"
       stop-color="#ac7ec6"
       id="stop84" />
    <stop
       offset=".51274866"
       stop-color="#ca87dc"
       id="stop86" />
    <stop
       offset="1"
       stop-color="#ebeaeb"
       id="stop88" />
  </linearGradient>
  <linearGradient
     id="n"
     gradientTransform="matrix(0.85938698,0,0,1.1353881,8.99998,-2.607879)"
     gradientUnits="userSpaceOnUse"
     x1="68"
     x2="68"
     y1="4"
     y2="48">
    <stop
       offset="0"
       stop-color="#fff"
       id="stop91" />
    <stop
       offset=".54545456"
       stop-color="#ebebeb"
       id="stop93" />
    <stop
       offset=".90909094"
       stop-color="#bababa"
       id="stop95" />
    <stop
       offset="1"
       stop-color="#7e7e7f"
       id="stop97" />
  </linearGradient>
  <linearGradient
     id="o"
     gradientTransform="matrix(1.0731876,0,0,1.0898743,-4.878275,-0.979469)"
     gradientUnits="userSpaceOnUse"
     x1="64"
     x2="64"
     y1="88"
     y2="56">
    <stop
       offset="0"
       stop-color="#7f7f81"
       id="stop100" />
    <stop
       offset=".44999999"
       stop-color="#b6b6b7"
       id="stop102" />
    <stop
       offset=".67499995"
       stop-color="#f5f5f5"
       id="stop104" />
    <stop
       offset="1"
       stop-color="#cfcfcf"
       id="stop106" />
  </linearGradient>
  <linearGradient
     id="p"
     gradientTransform="matrix(1.1000154,0,0,1.259077,-6.400024,-21.931205)"
     gradientUnits="userSpaceOnUse"
     x1="64"
     x2="63.9991"
     y1="96"
     y2="52.364712">
    <stop
       offset="0"
       stop-color="#080808"
       id="stop109" />
    <stop
       offset="1"
       stop-color="#232323"
       id="stop111" />
  </linearGradient>
  <g
     id="g1034"
     transform="matrix(0.125,0,0,0.125,0,-3.8638969e-6)">
    <g
       id="g152"
       transform="translate(2.4e-5)">
      <rect
         id="rect114"
         y="16.000055"
         x="23.999975"
         width="80"
         ry="0.35164401"
         rx="0.20271"
         height="34.240574"
         style="fill:#111012" />
      <rect
         id="rect116"
         y="23.999949"
         x="31.999973"
         width="64.000008"
         ry="0.27960199"
         rx="0.168174"
         height="27.379881"
         style="fill:#3e3c41" />
      <rect
         id="rect118"
         y="3.9999999e-05"
         x="39.999977"
         width="48"
         ry="0.315411"
         rx="0.19865599"
         height="56.058727"
         style="fill:#636363;fill-opacity:0.99607801" />
      <rect
         id="rect120"
         y="-67.694855"
         x="5.8189769"
         width="113.77512"
         transform="scale(1,-1)"
         rx="8"
         height="23.2724"
         style="fill:#1d1d1d" />
      <rect
         id="rect122"
         y="44.000023"
         x="-2.4000001e-05"
         width="127.99999"
         ry="0.383627"
         rx="0.2445"
         height="58.603493"
         style="fill:url(#p)" />
      <rect
         id="rect124"
         y="-63.999985"
         x="3.9999759"
         width="119.99999"
         transform="scale(1,-1)"
         ry="3.693984"
         rx="7.6875272"
         height="19.999987"
         style="fill:#b6b6b6" />
      <rect
         id="rect126"
         y="55.999977"
         x="3.9999759"
         width="119.99999"
         ry="0.271696"
         rx="0.221498"
         height="40.000019"
         style="fill:url(#o)" />
      <rect
         id="rect128"
         y="44.42252"
         x="11.999976"
         width="103.99999"
         ry="0.352081"
         rx="0.23216"
         height="19.577457"
         style="fill:#28232c" />
      <rect
         id="rect130"
         y="3.9999859"
         x="43.999977"
         width="39.999996"
         ry="0.28304201"
         rx="0.177371"
         height="46.240612"
         style="fill:url(#n)" />
      <path
         id="path132"
         style="fill:url(#m);stroke:#1f1f1f;stroke-width:3;stroke-linecap:square;stroke-linejoin:round;stroke-opacity:0.92488302"
         d="m 20.378978,44.530014 h 87.621902 c 0.10394,0 0.18762,0.155338 0.18762,0.347716 v 16.468233 c 0,0.192756 -0.12556,0.264567 -0.18762,0.347717 l -7.44861,9.999987 0.36375,6 H 27.463822 l 0.363764,-6 -7.44861,-9.999987 c -0.06776,-0.09109 -0.187623,-0.154961 -0.187623,-0.347717 V 44.87773 c 0,-0.192756 0.08368,-0.347716 0.187625,-0.347716 z"
         inkscape:connector-curvature="0" />
      <path
         id="path134"
         d="M 23.999976,95.999998 V 128.00001 H 103.99998 V 95.999998 Z"
         inkscape:connector-curvature="0"
         style="fill:#222222;fill-rule:evenodd" />
      <path
         id="path136"
         d="m 27.999975,95.999998 v 27.999992 h 71.999997 l 4e-6,-27.999992 z"
         style="fill:url(#l);fill-rule:evenodd"
         inkscape:connector-curvature="0" />
      <rect
         id="rect138"
         y="76.000053"
         x="23.999975"
         width="79.999985"
         ry="0.26632899"
         rx="0.206393"
         height="20.000017" />
      <rect
         id="rect140"
         y="68.000046"
         x="51.999977"
         width="23.999996"
         ry="0.168183"
         rx="0.212846"
         height="8.0000916"
         style="fill:url(#k)" />
      <rect
         id="rect142"
         y="44.000023"
         x="35.999977"
         width="56.000004"
         ry="0.64031398"
         rx="0.28118101"
         height="15.999999"
         style="fill:#986aae" />
      <rect
         id="rect144"
         y="44.000023"
         x="39.999977"
         width="48"
         ry="1.007805"
         rx="0.30959001"
         height="27.999975"
         style="opacity:0.92000002;fill:url(#j)" />
      <rect
         id="rect146"
         y="44.000023"
         x="39.999977"
         width="48"
         ry="0.52547199"
         rx="0.25799099"
         height="11.999978"
         style="fill:#c9b1d5" />
      <rect
         id="rect148"
         y="44.000023"
         x="43.999977"
         width="40"
         ry="0.26655301"
         rx="0.25799099"
         height="7.9999752"
         style="fill:#0c0c0c" />
      <path
         id="path150"
         d="m 28.000878,87.693995 -9.03e-4,-7.693984 h 71.999997 l 9.08e-4,7.693984 z"
         inkscape:connector-curvature="0"
         style="fill:#545156;fill-rule:evenodd" />
    </g>
    <g
       id="g170"
       transform="matrix(1.0803725,0,0,1.0803725,-10.530373,-10.287683)">
      <path
         id="path154"
         d="M 68.985809,46.546616 H 127.9982 V 128.00006 H 68.985809 Z"
         style="fill:url(#a)"
         inkscape:connector-curvature="0" />
      <path
         id="path156"
         d="M 76.390663,53.951469 H 120.81979 V 120.59515 H 76.390663 Z"
         style="fill:url(#b)"
         inkscape:connector-curvature="0" />
      <path
         id="path158"
         transform="matrix(0.69309305,0,0,0.69309305,41.153912,-600.6251)"
         d="m 92.81509,1029.6319 c 1.071428,1.4286 10.71429,15.3572 11.78571,13.5715 1.07143,-1.7858 26.42857,-25.3572 25,-26.7858 -1.42857,-1.4285 -33.928567,-41.78567 -33.928567,-41.78567 z"
         clip-path="url(#d)"
         style="opacity:0.68000034;fill:url(#c);fill-rule:evenodd;filter:url(#e)"
         inkscape:connector-curvature="0" />
      <path
         id="path160"
         transform="matrix(0.92560668,0,0,0.92560668,9.746984,9.522348)"
         d="M 72,48 V 96 C 86.790777,78.779066 106.04067,72.768069 120,70.5625 V 48 Z"
         style="fill:url(#f);fill-rule:evenodd"
         inkscape:connector-curvature="0" />
      <path
         id="path162"
         d="M 83.795517,65.058746 H 113.41493 V 113.19029 H 83.795517 Z"
         style="fill:url(#g)"
         inkscape:connector-curvature="0" />
      <path
         id="path164"
         d="M 87.497948,68.761177 H 109.71251 V 109.48787 H 87.497948 Z"
         inkscape:connector-curvature="0"
         style="fill:#535353" />
      <path
         id="path166"
         d="M 91.200371,72.4636 H 106.01008 V 87.273309 H 91.200371 Z"
         style="fill:url(#h)"
         inkscape:connector-curvature="0" />
      <path
         id="path168"
         transform="scale(1,-1)"
         d="m 91.200371,-116.89272 h 14.809719 v 29.619408 H 91.200371 Z"
         style="fill:url(#i)"
         inkscape:connector-curvature="0" />
    </g>
  </g>
</svg>
